svg/flower_poppy.svg

<svg xmlns="http://www.w3.org/2000/svg" viewBox="0 0 24 24"><path d="M18.5 12A3.5 3.5 0 0 0 22 8.5 6.5 6.5 0 0 0 15.5 2 3.5 3.5 0 0 0 12 5.5 3.5 3.5 0 0 0 8.5 2 6.5 6.5 0 0 0 2 8.5 3.5 3.5 0 0 0 5.5 12 3.5 3.5 0 0 0 2 15.5 6.5 6.5 0 0 0 8.5 22a3.5 3.5 0 0 0 3.5-3.5 3.5 3.5 0 0 0 3.5 3.5 6.5 6.5 0 0 0 6.5-6.5 3.5 3.5 0 0 0-3.5-3.5M12 16a4 4 0 0 1-4-4 4 4 0 0 1 4-4 4 4 0 0 1 4 4 4 4 0 0 1-4 4m2.5-4a2.5 2.5 0 0 1-2.5 2.5A2.5 2.5 0 0 1 9.5 12 2.5 2.5 0 0 1 12 9.5a2.5 2.5 0 0 1 2.5 2.5"/></svg>

<?xml version="1.0" encoding="UTF-8"?><!DOCTYPE svg PUBLIC "-//W3C//DTD SVG 1.1//EN" "http://www.w3.org/Graphics/SVG/1.1/DTD/svg11.dtd"><svg xmlns="http://www.w3.org/2000/svg" xmlns:xlink="http://www.w3.org/1999/xlink" version="1.1" id="mdi-flower-poppy" width="24" height="24" viewBox="0 0 24 24"><path d="M18.5,12A3.5,3.5 0 0,0 22,8.5A6.5,6.5 0 0,0 15.5,2A3.5,3.5 0 0,0 12,5.5A3.5,3.5 0 0,0 8.5,2A6.5,6.5 0 0,0 2,8.5A3.5,3.5 0 0,0 5.5,12A3.5,3.5 0 0,0 2,15.5A6.5,6.5 0 0,0 8.5,22A3.5,3.5 0 0,0 12,18.5A3.5,3.5 0 0,0 15.5,22A6.5,6.5 0 0,0 22,15.5A3.5,3.5 0 0,0 18.5,12M12,16A4,4 0 0,1 8,12A4,4 0 0,1 12,8A4,4 0 0,1 16,12A4,4 0 0,1 12,16M14.5,12A2.5,2.5 0 0,1 12,14.5A2.5,2.5 0 0,1 9.5,12A2.5,2.5 0 0,1 12,9.5A2.5,2.5 0 0,1 14.5,12Z" /></svg>
